X:1
T:Title
%%score { ( 1 3 ) | 2 }
L:1/8
M:4/4
K:F
V:1 treble nm="Grand Piano"
V:3 treble 
V:2 bass 
V:1
 z4 z2[Q:1/4=100] FG | A>A A2 AAA[GB] | [Ac]>[GB] [FA][GB] [Ac]2 [GB][FA] | %3
 [EG]2 [EG]>[EG] [EG][EG][FA][GB] | A>G FD C2 FG | A2 A>A AAA[GB] | %6
 [Ac]>[GB] [FA][GB] [Ac]2 [FA][Ac] | [Af]2 [ce][Bd] [Bd][Ac]AA |[M:7/8] G>[EGc][EGc] [DF=B] [Ec]3 | %9
[M:1/4] [FA]>[GB] |[M:4/4] [Ac]2 [Ac][Ac] [Bd][Ac] F>G | A2 AA BAFF | [EG]3 [FA] [Ec]2 [GB]2 | %13
 [FA]6 z2 | [Ac]2 [Ac][Ac] [Bd][Ac] [FA]>[Ac] | [Af]2 [ce][Bd] [Bd][Ac]FF | [EG]3 [Ed] [Fc]2 z B, | %17
[M:3/4] F6 |] %18
V:2
 z4 z2 [F,A,C][F,B,C] | [F,CF]>[F,CF] [F,CF]2 [F,CF][F,CF][F,CF][F,C] | %2
 [F,F]>[F,C] [F,C][F,C] [F,F]2 [F,C][F,C] | [C,C]2 [C,C]>[C,C] [C,C][C,C][C,C][C,C] | %4
 [F,CF]>[F,B,C] [F,A,C][F,B,] [F,A,]2 [F,A,C][F,B,C] | %5
 [F,CF]2 [F,CF]>[F,CF] [F,CF][F,CF][F,CF][F,C] | [F,F]>[F,C] [F,C][F,C] [F,F]2 [F,C][F,C] | %7
 [F,C]2 [F,F][F,F] [F,F][F,F][F,CF][F,CF] |[M:7/8] [G,CE]>[G,,G,][G,,G,] [G,,G,] [C,C]3 | %9
[M:1/4] [F,C]>[F,C] |[M:4/4] [F,F]2 [F,F][F,F] [F,F][F,F] [F,A,]>[F,B,F] | %11
 [F,CF]2 [F,CF][F,CF] [F,DF][F,CF][F,A,][F,A,] | [C,C]3 [C,C] [C,G,]2 [C,C]2 | %13
 [F,C]2 F,F, F,2 [F,CF]>[F,C] | [F,F]2 [F,F][F,F] [F,F][F,F] [F,C]>[F,C] | %15
 [F,C]2 [F,F][F,F] [F,F][F,F][F,A,][F,A,] | [C,C]3 [C,B,] [C,A,]2 .[C,G,C]2 |[M:3/4] [F,A,C]6 |] %18
V:3
 x8 | x8 | x8 | x8 | x8 | x8 | x8 | x8 |[M:7/8] x7 |[M:1/4] x2 |[M:4/4] x8 | x8 | x8 | %13
 z2 CC C2 A>[GB] | x8 | x8 | z4 z2 E2 |[M:3/4] x6 |] %18

